!!!COM: Grieg, Edvard
!!!OTL: Anitra's Dance
!!!OPR: Peer Gynt
!!!OMD: Tempo di Mazurka
**kern	**kern	**dynam
*staff2	*staff1	*staff1/2
*Ipiano	*Ipiano	*Ipiano
*>[A,B,B1,B,B2]	*>[A,B,B1,B,B2]	*>[A,B,B1,B,B2]
*>norep[A,B,B2]	*>norep[A,B,B2]	*>norep[A,B,B2]
*>A	*>A	*>A
*clefG2	*clefG2	*clefG2
*k[]	*k[]	*k[]
*a:	*a:	*a:
*M3/4	*M3/4	*M3/4
*MM120	*MM120	*MM120
=1-	=1-	=1-
[2.e;/ [2.b;/	[2.ee\ [2.gg#\ [2.bb\ [2.eee\	.
=2	=2	=2
4e/] 4b/]	4ee\] 4gg#\] 4bb\] 4eee\]	.
4r	4r;	.
4r	4r	.
*clefF4	*	*
=3	=3	=3
4AA'/	4r	.
4E'\	4A'/ 4c'/	p
8E'\L	4B'/ 4d'/	.
8E'\J	.	.
=4	=4	=4
4AA'/	4r	.
4E'\	4c'/ 4e'/	.
8E'\L	4d'/ 4f'/	.
8E'\J	.	.
=5	=5	=5
4AA'/	4r	.
4E'\	4c'/ 4e'/	.
8E'\L	4B'/ 4d'/	.
8E'\J	.	.
=6	=6	=6
*	*^	*
4AA'/	2r	4r	.
4E'\	.	4A'/ 4c'/	.
8E'\L	4e/	4G#'\ 4B'\	.
8E'\J	.	.	.
*	*v	*v	*
=7	=7	=7
.	(aq/LL	.
.	bq/JJ	.
4AA'/	8a/L)	.
.	8g#'/	.
4E'\ 4A'\ 4c'\	8a'/	.
.	8b'/	.
4E'\ 4B'\ 4d'\	8cc'/	.
.	8dd'/J	.
=8	=8	=8
4AA'/	(8ee\L	.
.	8aa\J	.
4E'\ 4c'\ 4e'\	4ee'\)	.
4E\ 4d\ 4f\	4dd\	.
=9	=9	=9
4AA'/	(8cc\L	.
.	8aa\J	.
4E'\ 4c'\ 4e'\	4cc'\)	.
4E'\ 4B'\ 4d'\	4b\	.
=10	=10	=10
4AA'/	&(2a/&)	.
4E'\ 4A'\ 4c'\	.	.
4A'\ 4c'\ 4e'\	4r	.
=11	=11	=11
4AA'/	(8a\L	.
.	8cc\J	.
4A'\ 4c'\ 4f'\	4a'/	.
4G'\ 4c'\ 4e'\	4g/	.
=12	=12	=12
4AA'/	8f#/L	.
.	8cc/J	.
4F#'\ 4c'\ 4d#'\	2f#/)	.
4F#'\ 4c'\ 4d#'\	.	.
=13	=13	=13
4AA'/	(8fn/L	.
.	8cc/J	.
4A'\ 4c'\	4f'/	.
4G'\ 4c'\	4e/	.
=14	=14	=14
4BB'/	8d#/L	.
.	8b/J	.
4F#'\ 4B'\	2d#/)	.
4F#'\ 4B'\	.	.
=15	=15	=15
8B'\L	8b'/L	pp
8A#'\	8a#'/	.
8F#'\	8f#'/	.
8B'\	8b'/	.
8An'\	8an'/	.
8Fn'\J	8fn'/J	.
=16	=16	=16
8B'\L	8b'/L	.
8G#'\	8g#'/	.
8E'\	8e'/	.
8B'\	8b'/	.
8Gn'\	8gn'/	.
8D#'\J	8d#'/J	.
=17	=17	=17
8B'\L	8b'/L	.
8F#'\	8f#'/	.
8Dn'\	8dn'/	.
8B'\	8b'/	.
8E#\	8e#'/	.
8C#'\J	8c#'/J	.
=18	=18	=18
8B'\L	8b'/L	.
8En'\	8en'/	.
8Cn'\	8cn'/	.
8B'\	8b'/	.
8D#'\	8d#'/	.
8BB'\J	8B'/J	.
=19	=19	=19
.	(eq/LL	.
.	fq/JJ	.
8E'\L	8e/L)	.
8D#'\	8d#'/	.
8E'\	8e'/	.
8F#'\	8f#'/	.
8G'\	8g'/	.
8A'\J	8a'/J	.
=20	=20	=20
8B'\L	8b'\L	.
8e'\	8ee'\	.
8B'\	8b'\	.
8A'\	8a'\	.
8G'\	8g\	.
8F#'\J	8f#'\J	.
=21	=21	=21
8E'\L	8e/L	.
8F#'\	8f#/	.
8G'\	8g'/	.
8A'\J	8a'/J	.
4BBB'/ 4BB'/	4B'/ 4b'/	f
=22	=22	=22
4EE'/ 4E'/	4e'/ 4ee'/	.
4r	4r	.
4r	4e/	p
=23	=23	=23
.	aq/LL	.
.	(bq/JJ	.
4AA'/	8a/L	p
.	8g#'/	.
4E'\ 4A'\ 4c'\	8a/	.
.	8b'/	.
4E'\ 4B'\ 4d'\	8cc'/	.
.	8dd'/J	.
=24	=24	=24
4AA'/	8ee\L	.
.	8aa\J	.
4E'\ 4c'\ 4e'\	&(4ee'\&)	.
4E'\ 4d'\ 4f'\	4dd\	.
=25	=25	=25
4AA'/	8cc\L	.
.	8aa\J	.
4E'\ 4c'\ 4e'\	&(4cc'\&)	.
4E'\ 4B'\ 4d'\	4b\	.
=26	=26	=26
4AA'/	2a/)	.
4E'\ 4A'\ 4c'\	.	.
4A'\ 4c'\ 4e'\	4r	.
=27	=27	=27
4AA'/	(8a/L	.
.	8cc/J	.
4A'\ 4c'\ 4f'\	4a'/	.
4A'\ 4c'\ 4e'\	4g/	.
=28	=28	=28
4AA'/	8f#/L	.
.	8cc/J	.
4F#'\ 4c'\ 4d#'\	2f#/)	.
4F#'\ 4c'\ 4d#'\	.	.
=29	=29	=29
4AA'/	(8fn/L	.
.	8cc/J	.
4A'\ 4c'\	4f'/	.
4G'\ 4c'\	4e/	.
=30	=30	=30
4BB'/	8d#/L	.
.	8b/J	.
4F#'\ 4B'\	2d#/)	.
4F#'\ 4B'\	.	.
=31	=31	=31
8B'\L	8b'/L	pp
8A#'\	8a#'/	.
8F#'\	8f#'/	.
8B'\	8b'/	.
8An'\	8an'/	.
8Fn'\J	8fn'/J	.
=32	=32	=32
8B'\L	8b'/L	.
8G#'\	8g#'/	.
8E'\	8e'/	.
8B'\	8b'/	.
8Gn'\	8gn'/	.
8D#'\J	8d#'/J	.
=33	=33	=33
8B'\L	8b'/L	.
8F#\	8f#'/	.
8Dn'\	8dn'/	.
8B'\	8b'/	.
8E#'\	8e#'/	.
8C#'\J	8c#'/J	.
=34	=34	=34
8B'\L	8b'/L	.
8En'\	8en'/	.
8Cn'\	8cn'/	.
8B'\	8b'/	.
8D#'\	8d#'/	.
8BB'\J	8B'/J	.
=35	=35	=35
.	(eq/LL	.
.	fq/JJ	.
8E'\L	&(8e/L&))	.
8D#'\	8d#'/	.
8E'\	8e'/	.
8F#'\	8f#'/	.
8G'\	8g'/	.
8A'\J	8a'/J	.
=36	=36	=36
8B'\L	8b'\L	.
8e'\	8ee'\	.
8B'\	8b'\	.
8A'\	8a'\	.
8G'\	8g'\	.
8F#'\J	8f#'\J	.
=37	=37	=37
8E'\L	8e'/L	.
8F#'\	8f#'/	.
8G'\	8g'/	.
8A'\J	8a'/J	.
4BBB'/ 4BB'/	4B'/ 4b'/	f
=38	=38	=38
4EE'/ 4E'/	4e'/ 4ee'/	f
4r	4r	.
4r	4r	.
=39!|:	=39!|:	=39!|:
*>B	*>B	*>B
*	*^	*
4EE'/	4.dd/ 4.ffn/	2.g#\	p
4BB'\ 4E'\ 4G#'\	.	.	.
.	8cc/ 8ee/	.	.
4E\ 4G#\ 4d\	8cc/ (8ee/L	.	.
.	8b/ 8dd/J)	.	.
=40	=40	=40	=40
4EE'/	4.b/ 4.dd/	2.g#\	.
4BB'\ 4E'\ 4G#'\	.	.	.
.	8cc/ 8ee/	.	.
4E\ 4G#\ 4d\	8cc/ (8ee/L	.	.
.	8dd/ 8ff/J)	.	.
*	*v	*v	*
=41	=41	=41
4EE'/	2.g#\ 2.dd\ 2.ff\	.
4BB'\ 4E'\ 4G#'\	.	.
4E'\ 4G#'\ 4d'\	.	.
=42	=42	=42
4EE'/	4g#'\ 4dd'\ 4ee'\	.
4BB'\ 4E'\ 4G#'\	4r	.
4E'\ 4G#'\ 4d'\	4r	.
=43	=43	=43
8r	4r	.
8f'\L	.	.
8d'\	4r	.
8c'\J	.	.
8B'\	8r	.
8f\	(8ff\	.
=44	=44	=44
&(8d'\L&)	8dd'\L)	.
8c'\J	8cc'\J	.
8B'\	8b'\	.
8d'\L	8r	.
8B'\	4r	.
8A'\J	.	.
=45	=45	=45
8G#'\	8r	.
(8d\L	(8dd\L	.
8B'\)	8b'\)	.
8A'\J	8a'\J	.
8G#'\	8g#'/	.
8B'\	8r	.
=46	=46	=46
8G#'\L	2.r	.
8F'\J	.	.
8E'/L	.	.
8D'/	.	.
8C'/	.	.
8BB'/J	.	.
=47	=47	=47
*	*^	*
4AA'/	4.ggn/ (4.bb-/	2.cc#\	p
4E'\ 4A'\ 4c#'\	.	.	.
.	8ff/ 8aa/)	.	.
4A'\ 4c#'\ 4gn'\	8ff/ (8aa/L	.	.
.	8ee/ 8gg/J)	.	.
=48	=48	=48	=48
4AA'/	4.ee/ (4.gg/	2.cc#\	.
4E'\ 4A'\ 4c#'\	.	.	.
.	8ff/ 8aa/)	.	.
4A'\ 4c#'\ 4g'\	8ff/ (8aa/L	.	.
.	8gg/ 8bb-/J)	.	.
*	*v	*v	*
=49	=49	=49
4AA'/	2.cc#\ 2.gg\ 2.bb-\	.
4E'\ 4A'\ (4c#'\	.	.
4A'\ 4c#'\ 4g'\)	.	.
=50	=50	=50
4AA'/	4cc#'\ 4gg'\ 4aa'\	.
4E'\ 4A'\ 4c#'\	4r	.
4A'\ 4c#'\ 4g'\	4r	.
*clefG2	*	*
=51	=51	=51
8r	4r	.
8b-'/L	.	.
8g'/	4r	.
8f'/J	.	.
8e/	8r	.
8b-/	(8bb-\	.
=52	=52	=52
&(8g'/L&)	8gg'\L)	.
8f'/J	8ff'\J	.
8e'/	8ee'\	.
8g'/L	8r	.
8e'/	4r	.
8d'/J	.	.
=53	=53	=53
8c#'/	8r	.
(8g/L	(8gg\L	.
8e'/)	8ee'\)	.
8d'/J	8dd'\J	.
8c#'/	8cc#'\	.
8e'/	8r	.
=54	=54	=54
8c#'/L	2.r	.
8B-'/J	.	.
8A'/L	.	.
*clefF4	.	.
8G'/	.	.
8F'/	.	.
8E'/J	.	.
=55	=55	=55
4D'\	4r	.
4A'\	4d'/ 4f#'/	pp
8A'\L	4e'/ 4g'/	.
8A'\J	.	.
=56	=56	=56
4D'\	4r	.
4A'\	4f#'/ 4a'/	.
8A'\L	4g'/ 4b'/	.
8A'\J	.	.
=57	=57	=57
*	*^	*
4D'\	4r	2r	.
4A'\	4f#'/ 4a'/	.	.
8A'\L	4a/	4e'\ 4g'\	mf
8A'\J	.	.	.
*	*v	*v	*
=58	=58	=58
.	(ddq/L	.
.	eeq/J	.
4D'\	(8dd'\L)	.
.	8cc#'\	.
4A'\ 4d'\ 4f#'\	8dd'\	.
.	8ee'\	.
4A'\ 4c#'\ 4e'\	8ff#'\	.
.	8gg'\J	.
=59	=59	=59
4D'\	8aa\L	.
.	8ddd\J	.
4A'\ 4d'\ 4f#'\	&(4aa\&)	.
4A'\ 4e'\ 4g'\	4gg\	.
=60	=60	=60
4D'\	8ff#\L	.
.	8ddd\J	.
4A'\ 4f#'\ 4a'\	&(4ff#\&)	.
4A'\ 4g'\ 4b'\	4ee\	.
=61	=61	=61
4D'\	2.dd\)	.
4A'\ 4f#'\ 4a'\	.	.
4A'\ 4e'\ 4g'\	.	.
=62	=62	=62
4D'\	4r	.
4A'\	4d'/ 4fn'/	pp
8A'\L	4e'/ 4g'/	.
8A'\J	.	.
=63	=63	=63
4D'\	4r	.
4A'\	4f'/ 4a'/	.
8A'\L	4g'/ 4b-'/	.
8A'\J	.	.
=64	=64	=64
*	*^	*
4D'\	4r	2r	.
4A'\	4f'/ 4a'/	.	.
8A'\L	4a/	4e'\ 4g'\	mf
8A'\J	.	.	.
*	*v	*v	*
=65	=65	=65
.	(ddq/LL	.
.	eeq/JJ	.
4D'\	(8dd\L)	.
.	8cc#\	.
4A'\ 4d'\ 4f'\	8dd'\	.
.	8ee'\	.
4A'\ 4c#'\ 4e'\	8ff'\	.
.	8gg'\J	.
=66	=66	=66
4D'\	8aa\L	.
.	8ddd\J	.
4A'\ 4d'\ 4f'\	&(4aa\&)	.
4A'\ 4e'\ 4g'\	4gg\	.
=67	=67	=67
4D'\	8ff\L	.
.	8ddd\J	.
4A'\ 4f'\ 4a'\	&(4ff\&)	.
4A'\ 4g'\ 4b-'\	4ee\	.
=68	=68	=68
4D'\	2.dd\)	.
4A'\ 4f'\ 4a'\	.	.
4A'\ 4e'\ 4g'\	.	.
=69	=69	=69
*^	*	*
.	EEq/	.	.
4r	[2.E-\	4r	.
4r	.	4A'/ 4c'/ 4f'/	.
4A'/ 4c'/ 4f'/	.	8r	.
.	.	(8cc\	.
=70	=70	=70	=70
.	.	ffq/	.
4r	2.E-\]	&(8ff\L&)	.
.	.	8ee'\	.
4A'/ 4c'/ 4f'/	.	8ff\	.
.	.	8gg'\	.
4A'/ 4c'/ 4f'/	.	8aa'\	.
.	.	8bb-'\J	.
*v	*v	*	*
*clefG2	*	*
=71	=71	=71
*	*^	*
(fq/LL	.	.	.
gq/JJ	.	.	.
&(8f/L&))	8ccc\L	4r	.
8e'/	8fff\J	.	.
8A'/ 8c'/ 8f'/	2ccc\)	4r	.
8g'/	.	.	.
8a'/	.	4A'\ 4c'\ 4f'\	.
8b-'/J	.	.	.
*	*v	*v	*
=72	=72	=72
(8cc\L	4r	.
8ff\J	.	.
2cc\)	4A'/ 4c'/ 4f'/	.
.	4A'/ 4c'/ 4f'/	.
*clefF4	*	*
=73	=73	=73
*^	*	*
.	FF#q/	.	.
4r	[2.F#\	4r	.
4r	.	4A'/ 4c'/ 4e'/	.
4A'/ 4c'/ 4e'/	.	8r	.
.	.	(8ee\	.
=74	=74	=74	=74
.	.	aaq/LL	.
.	.	bbq/JJ	.
4r	2.F#\]	&(8aa\L&)	.
.	.	8gg#'\	.
4A'/ 4c'/ 4e'/	.	8aa'\	.
.	.	8bb'\	.
4A'/ 4c'/ 4e'/	.	8ccc\	.
.	.	8ddd\J	.
*v	*v	*	*
*clefG2	*	*
=75	=75	=75
*	*^	*
(aq/LL	.	.	.
bq/JJ	.	.	.
8a/L)	8eee\L	4r	.
8g#/	8aaa\J	.	.
8c/ 8e/ 8a/	2eee\)	4r	.
8b/	.	.	.
8cc/	.	4A'/ 4c'/ 4e'/	.
8dd/J	.	.	.
*	*v	*v	*
=76	=76	=76
(8ee\L	4r	.
8aa\J	.	.
2ee\)	4A'/ 4c'/ 4e'/	.
.	4A'/ 4c'/ 4e'/	.
=77	=77	=77
*clefF4	*	*
*^	*	*
.	BBq/	.	.
4r	2c\	4r	.
4r	.	4e'/ 4f#'/ 4a'/	f
*clefG2	*clefG2	*	*
4d#'/ 4f#'/ 4a'/	4B\	8r	.
.	.	(8b/	.
*v	*v	*	*
*clefF4	*	*
=78	=78	=78
.	ffq/LL	.
.	ggq/JJ	.
4BB/	&(8ff#\L&)	.
.	8ee#'\	.
*clefG2	*	*
4c'/ 4e'/ 4f#'/ 4a'/	8ff#'\	.
.	8gg'\	.
4B'/ 4d#'/ 4f#'/ 4a'/	8aa'\	.
.	8bb'\J	.
*clefF4	*	*
=79	=79	=79
8BB'/L	8ccc/L	.
*clefG2	*	*
8e#'/	8cc/J	.
8c'/ 8en'/ 8f#'/	&(2ff#/&))	.
8g'/	.	.
8c'/ 8f#'/ 8a'/	.	.
8b'/J	.	.
=80	=80	=80
4g'/	(8cc/L	.
.	8c/J	.
*clefG2	*	*
4c/ 4e/ 4a/	2f#/)	.
4A/ 4d#/ 4a/	.	.
*clefF4	*	*
=81	=81	=81
*^	*	*
.	EEq/	.	.
4r	2Fn\	4r	.
4r	.	4A/ 4B/ 4dn/	.
4G#'/ 4B'/ 4dn'/	&(4E\&)	8r	.
.	.	(8e/	.
*v	*v	*	*
=82	=82	=82
.	bq/LL	.
.	ccq/JJ	.
4EE'/	&(8b\L&)	.
.	8a#'\	.
4F'\ 4A'\ 4B'\ 4d'\	8b'\	.
.	8cc'\	.
4E'\ 4G#'\ 4B'\ 4d'\	8dd\	.
.	8ee\J	.
=83	=83	=83
8EE'/L	8ff/L	.
8A#'/	8f/J	.
8F'/ 8An'/ 8B'/	&(2b/&))	.
8c'/	.	.
8E'/ 8G#'/ 8B'/ 8d'/	.	.
8e'/J	.	.
=84	=84	=84
*	*^	*
4EE'/	4r	(8f\L	.
.	.	8F\J	.
4F'\ 4A'\ 4d'\	4r	2B\)	.
4E'\ 4G#'\ 4d'\	4e/	.	.
*	*v	*v	*
=85	=85	=85
.	(aq/LL	.
.	bq/JJ	.
4AA/	8a/L)	p
.	8g#'/	.
4E'\ 4A'\ 4c'\	8a'/	pp
.	8b'/	.
4E'\ 4B'\ 4d'\	8cc'/	.
.	8dd'/J	.
=86	=86	=86
*^	*^	*
(8A/L	4AA\	(8ee/L	4r	.
8G#/)	.	8aa/J	.	.
8A'/	4r	4ee/)	4a\ 4cc\	.
8B'/	.	.	.	.
8c'/	4r	4dd/	4f\ 4b\	.
8d'/J	.	.	.	.
*v	*v	*	*	*
=87	=87	=87	=87
4AA'/	8e/ (8cc/L	2r	.
.	8a/ 8ee/J	.	.
4E'\ 4c'\	4e/ 4cc/)	.	.
4E'\ 4B'\	4g#/ 4b/	4d\	.
=88	=88	=88	=88
4AA/	&(2.a/&)	4e\	.
4E'\ 4A'\ 4c'\	.	4r	.
4A'\ 4c'\ 4e'\	.	4r	.
=89	=89	=89	=89
4AA'/	[4aa^/	(2ff\	mf
*clefG2	*	*	*
4f'/ 4a'/ 4cc'/	4aa/]	.	.
4e'/ 4g'/ 4cc'/	4gg/	4ee\)	.
=90	=90	=90	=90
4A/	[4ff#/	2.dd#\	p
4d#'/ 4f#'/ 4cc'/	2ff#/]	.	.
4d#'/ 4f#'/ 4cc'/	.	.	.
*clefF4	*	*	*
=91	=91	=91	=91
4AA'/	8ffn/L	(2a^\	mf
.	8ccc/J	.	.
4A'\ 4c'\ 4fn'\	&(4ff/&)	.	.
4G'\ 4c'\ 4e'\	4ee/	4g\)	.
=92	=92	=92	=92
4BB'/	(8dd#/L	2.f#\	p
.	8bb/J	.	.
4F#'\ 4B'\ 4d#'\	2dd#/)	.	.
4F#'\ 4B'\ 4d#'\	.	.	.
=93	=93	=93	=93
4DD/	8ddn^/L	(2b-\	mf
.	8ff/J	.	.
4B-'\ 4dn'\ 4fn'\	4dd/	.	.
4A'\ 4c'\ 4f'\	&(4cc/&)	4a\)	.
=94	=94	=94	=94
4D\	(8bn/L	2.g#\	p
.	8ff/J	.	.
4G#'\ 4Bn'\ 4f'\	2b/)	.	.
4G#'\ 4B'\ 4f'\	.	.	.
=95	=95	=95	=95
4DD'/	(8b-/L	2d\	mf
.	8ff/J	.	.
4D'\ 4F'\ 4B-'\	4b-/	.	.
4C'\ 4F'\ 4A'\	4a/)	&(4c\&)	.
*	*v	*v	*
=96	=96	=96
4EE'/	(8g#/L	p
.	8ee/J	.
4BBn'\ 4E'\ 4G#'\	2g#/)	.
4BB'\ 4E'\ 4G#'\	.	.
=97	=97	=97
8e'\L	8ee'\L	pp
8d#'\	8dd#'\	.
8B'\	8b'\	.
8e'\	8ee'\	.
8dn'\	8ddn'\	.
8B-'\J	8b-'\J	.
=98	=98	=98
8e'\L	8ee'\L	.
8c#'\	8cc#'\	.
8A'\	8a'\	.
8e'\	8ee'\	.
8cn'\	8ccn'\	.
8G#'\J	8g#'\J	.
=99	=99	=99
8e'\L	8ee'\L	.
8B'\	8b'\	.
8Gn'\	8gn'\	.
8e'\	8ee'\	.
8A#'\	8a#'\	.
8F#\J	8f#'\J	.
=100	=100	=100
8e'\L	8ee'\L	.
8An'\	8an'\	.
8Fn'\	8fn'\	.
8e'\	8ee'\	.
8G#'\	8g#'\	.
8E\J	8e'\J	.
=101	=101	=101
.	(aq/LL	.
.	bq/JJ	.
8A'\L	8a/L)	.
8G#'\	8g#'/	.
8A'\	8a'/	.
8B'\	8b'/	.
8c'\	8cc/	.
8d'\J	8dd'/J	.
=102	=102	=102
8e'\L	8ee'\L	.
8a'\	8aa'\	.
8e'\	8ee'\	.
8d'\	8dd\	.
8c'\	8cc\	.
8B'\J	8b'\J	.
=103	=103	=103
8A'\L	8a'\L	.
8B'\	8b'\	.
8c'\	8cc'\	.
8d'\J	8dd\J	.
4EE'/ 4E'/	4e'/ 4ee'/	f
=104	=104	=104
*>B1	*>B1	*>B1
4AA'\ 4A'\	4a'\ 4aa'\	.
4r	4r	.
4r	4r	.
=105:|!	=105:|!	=105:|!
*>B2	*>B2	*>B2
4AA'\ 4A'\	4a'\ 4aa'\	f
4r	4r	.
4EE'/ 4E'/	4r	.
=106	=106	=106
4AAA/ 4AA/	2.r	.
4r	.	.
4r	.	.
=107	=107	=107
[2.A;\ [2.e;\	[2.a;\ [2.cc;\ [2.ee;\ [2.aa;\	.
=108	=108	=108
4A\] 4e\]	4a\] 4cc\] 4ee\] 4aa\]	.
4r	4r	.
4r	4r	.
==	==	==
*-	*-	*-
!!!ENC: Craig Stuart Sapp
!!!END: 2004/09/04/
